icon_installer/data/icons/scalable/actions/show-ink-tool-symbolic.svg

<?xml version="1.0" encoding="UTF-8"?>
<svg height="16px" viewBox="0 0 16 16" width="16px" xmlns="http://www.w3.org/2000/svg">
    <g fill="#222222">
        <path d="m 9 7 c -0.554688 0 -1 0.253906 -1 0.5625 v 0.875 c 0 0.308594 0.445312 0.5625 1 0.5625 h -2 c -0.550781 0 -1.101562 0.53125 -0.96875 1.15625 l 0.96875 4.6875 c 0.132812 0.625 0.449219 1.15625 1 1.15625 h 6 c 0.550781 0 0.867188 -0.53125 1 -1.15625 l 1 -4.6875 c 0.132812 -0.625 -0.449219 -1.15625 -1 -1.15625 h -2 c 0.554688 0 1 -0.253906 1 -0.5625 v -0.875 c 0 -0.308594 -0.445312 -0.5625 -1 -0.5625 z m 0 0"/>
        <path d="m 7 0 s -1.292969 0.175781 -2.667969 1 c -3.332031 2 -4.332031 5.480469 -4.332031 7 c -0.34375 4.09375 1.46875 5 1.46875 5 c 0.09375 2 0.53125 3 0.53125 3 c 1 -1 1 -1 1 -1 s -1 -2.5 1 -3 c -0.5 -5 -0.105469 -9 3 -12 z m 0 0"/>
    </g>
</svg>

<svg xmlns="http://www.w3.org/2000/svg" width="16" height="16"><path fill="#222" d="M9 7c-.555 0-1 .254-1 .563v.875C8 8.745 8.445 9 9 9H7c-.55 0-1.102.531-.969 1.156L7 14.844c.133.625.45 1.156 1 1.156h6c.55 0 .867-.531 1-1.156l1-4.688C16.133 9.531 15.55 9 15 9h-2c.555 0 1-.254 1-.563v-.874c0-.31-.445-.563-1-.563zM7 0S5.707.176 4.332 1C1 3 0 6.48 0 8c-.344 4.094 1.469 5 1.469 5C1.563 15 2 16 2 16l1-1s-1-2.5 1-3c-.5-5-.105-9 3-12zm0 0"/></svg>
